img/speedo.svg

<svg width="46" height="35" viewBox="0 0 46 35" fill="none" xmlns="http://www.w3.org/2000/svg">
      <path d="M33.5254 22.1048C33.5254 27.8876 28.813 32.5754 23 32.5754C17.187 32.5754 12.4746 27.8876 12.4746 22.1048C12.4746 16.322 17.187 11.6341 23 11.6341C28.813 11.6341 33.5254 16.322 33.5254 22.1048Z" fill="#C4C4C4"/>
      <path d="M20.6744 23.465C20.0218 22.0604 20.6271 20.397 22.0195 19.7568C23.4089 19.1179 25.0668 19.7408 25.7194 21.1454L39.4804 28.8174L24.223 24.9233C22.8652 25.4464 21.3029 24.8179 20.6744 23.465Z" fill="#030104"/>
      <path d="M6.73655 6.73144C11.0808 2.39058 16.8566 0 23 0C29.1435 0 34.9194 2.39058 39.2636 6.73144C43.6077 11.0723 46 16.8437 46 22.9826C46 26.9463 45.0006 30.7557 43.1243 34.1266H38.8255L35.6813 32.3126L37.0699 29.9092L41.1128 32.2418C42.5411 29.463 43.348 26.3153 43.348 22.9826C43.348 22.3928 43.3212 21.8091 43.2717 21.2318L38.4511 22.0811L37.9689 19.3482L42.8462 18.4889C41.9747 14.6438 40.0096 11.2089 37.296 8.52879L33.9915 12.4642L31.864 10.6804L35.1936 6.71536C32.1404 4.42444 28.4238 2.97148 24.3885 2.69855V7.96182H21.6115V2.69855C17.5762 2.9717 13.8596 4.42454 10.8063 6.71547L14.136 10.6804L12.0086 12.4642L8.70396 8.52869C5.99049 11.2089 4.02544 14.6438 3.1539 18.4888L8.03114 19.3483L7.54877 22.081L2.72849 21.2316C2.67905 21.809 2.65224 22.3925 2.65224 22.9823C2.65224 26.3153 3.45879 29.4631 4.88732 32.2417L8.93034 29.9093L10.3188 32.3126L7.17472 34.1264H2.87572C0.999256 30.7555 0 26.9461 0 22.9823C-0.000106812 16.8436 2.3925 11.0721 6.73655 6.73144Z" fill="#030104"/>
     </svg>

<svg width="46" height="35" fill="none" xmlns="http://www.w3.org/2000/svg"><path d="M33.5254 22.1048c0 5.7828-4.7124 10.4706-10.5254 10.4706s-10.5254-4.6878-10.5254-10.4706c0-5.7828 4.7124-10.4707 10.5254-10.4707s10.5254 4.6879 10.5254 10.4707z" fill="#C4C4C4"/><path d="M20.6744 23.465c-.6526-1.4046-.0473-3.068 1.3451-3.7082 1.3894-.6389 3.0473-.016 3.6999 1.3886l13.761 7.672-15.2574-3.8941c-1.3578.5231-2.9201-.1054-3.5486-1.4583z" fill="#030104"/><path d="M6.7366 6.7314C11.0808 2.3906 16.8565 0 23 0c6.1435 0 11.9194 2.3906 16.2636 6.7314C43.6077 11.0723 46 16.8437 46 22.9826c0 3.9637-.9994 7.7731-2.8757 11.144h-4.2988l-3.1442-1.814 1.3886-2.4034 4.0429 2.3326c1.4283-2.7788 2.2352-5.9265 2.2352-9.2592 0-.5898-.0268-1.1735-.0763-1.7508l-4.8206.8493-.4822-2.7329 4.8773-.8593c-.8715-3.8451-2.8366-7.28-5.5502-9.9601l-3.3045 3.9354-2.1275-1.7838 3.3296-3.965c-3.0532-2.291-6.7698-3.744-10.8051-4.0168v5.2632h-2.777V2.6985c-4.0353.2732-7.7519 1.726-10.8052 4.017l3.3297 3.9649-2.1274 1.7838L8.704 8.5287c-2.7135 2.6802-4.6786 6.1151-5.5501 9.9601l4.8772.8595-.4823 2.7327-4.8203-.8494a20.5083 20.5083 0 0 0-.0763 1.7507c0 3.333.8066 6.4808 2.2351 9.2594l4.043-2.3324 1.3885 2.4033-3.144 1.8138h-4.299C.9992 30.7555 0 26.9461 0 22.9823c-.0001-6.1387 2.3925-11.9102 6.7366-16.2509z" fill="#030104"/></svg>
